X:1
T:Title
%%score { ( 1 4 5 ) | ( 2 3 ) }
L:1/8
Q:1/4=100
M:4/4
K:Ab
V:1 treble nm="Grand Piano"
V:4 treble 
V:5 treble 
V:2 bass 
V:3 bass 
V:1
 [Ec]>[DB] [CA]>[B,G] [CA]2 [CE]2 | [EA]2 B2 c4 | d>c B>=A B2 E2 | A2 c2 [Ge]4 | e>d c>B A2 G2 | %5
w: W.~A.~Ogden * * * * *|||||
 F2 [FA]2 [Fd]2 f2 | [Ae]2 [Ac]>A B2 A>G | [CEA]6 z2 | z2 (3FFF (3z BA z z/ A/ | E2 C>[B,D] [CE]4 | %10
w: |||||
 E>F G>A B4 | c>B A>c e2 c2 | z2 (3FFF (3z BA z z/ A/ | E2 C>[B,D] [CE]4 | E>F G>A B2 c>B | %15
w: |||||
 [CA]6 z2 |] %16
w: |
V:2
 [A,,A,]>[A,,A,] [A,,E,]>[A,,E,] [A,,E,]2 [A,,A,]2 | [C,A,]2 [E,G,E]2 [A,E]4 | %2
 [F,B,E]>[E,A,E] [E,G,E]>[E,_G,E] [E,=G,E]2 [G,D]2 | [A,CE]2 [A,E]2 [E,B,]4 | %4
 [A,CA]>[A,B,A] [A,E]>[A,D] [A,C]2[K:bass] [A,E]2 | [D,A,D]2 [D,A,]2 A,2 [DA]2 | %6
 [E,C]2 [E,E]>[E,C] [E,DE]2 [E,CE]>[E,B,E] | A,,6 z2 | %8
 (3[D,D][D,D][D,D] (3[D,D][D,D][D,D] [D,D]2 [D,A,D]>[F,A,D] | [A,C]2 [A,,E,A,]>[A,,E,] [A,,A,]4 | %10
 [E,G,]>[E,A,E] [E,B,E]>[E,CE] [E,DE]4 | [A,E]>[A,DE] [A,CE]>[A,E] [A,CE]4 | %12
 (3[D,D][D,D][D,D] (3[D,D][D,D][D,D] [D,D]2 [D,A,D]>[F,A,D] | [A,C]2 [A,,E,A,]>[A,,E,] [A,,A,]4 | %14
 [E,G,]>[E,A,E] [E,B,E]>[E,CE] [E,DE]2 [E,G,E]>[E,G,D] | [A,,A,]6 z2 |] %16
V:3
 x8 | x8 | x8 | x8 | x6[K:bass] x2 | z4 D,4 | x8 | x8 | x8 | x8 | x8 | x8 | x8 | x8 | x8 | x8 |] %16
V:4
 x8 | x8 | x8 | x8 | x8 | x8 | x8 | x8 | (3[FA-][FA-][FA-] A4 F2 | x8 | x8 | x8 | %12
 (3[FA-][FA-][FA-] A4 F2 | x8 | x8 | x8 |] %16
V:5
 x8 | x8 | x8 | x8 | x8 | x8 | x8 | x8 | z4 F2 z2 | x8 | x8 | x8 | z4 F2 z2 | x8 | x8 | x8 |] %16

